src/icons/svg/InfoFilled.svg

<svg width="24" height="24" viewBox="0 0 24 24" fill="none" xmlns="http://www.w3.org/2000/svg">
<path d="M11.852 0.962002C5.75598 1.044 0.878979 6.052 0.959979 12.15C1.04198 18.244 6.04998 23.122 12.146 23.04C18.242 22.958 23.119 17.95 23.038 11.852C22.958 5.758 17.948 0.880002 11.852 0.962002V0.962002ZM13.076 4.64C14.198 4.64 14.53 5.29 14.53 6.036C14.53 6.966 13.785 7.826 12.514 7.826C11.451 7.826 10.946 7.291 10.976 6.408C10.976 5.663 11.6 4.64 13.078 4.64H13.076ZM10.199 18.9C9.43198 18.9 8.87098 18.434 9.40698 16.388L10.287 12.759C10.439 12.177 10.465 11.945 10.287 11.945C10.058 11.945 9.06098 12.347 8.47298 12.743L8.08998 12.115C9.95598 10.557 12.102 9.643 13.02 9.643C13.786 9.643 13.914 10.551 13.531 11.946L12.523 15.762C12.345 16.436 12.422 16.67 12.599 16.67C12.829 16.67 13.583 16.392 14.325 15.808L14.758 16.39C12.945 18.204 10.966 18.902 10.198 18.902L10.199 18.9Z" fill="#1C2125"/>
</svg>

<!-- Generated by IcoMoon.io -->
<svg version="1.1" xmlns="http://www.w3.org/2000/svg" width="24" height="24" viewBox="0 0 24 24">
<title>info-filled</title>
<path fill="#444" d="M11.852 0.962c-6.096 0.082-10.973 5.090-10.892 11.188 0.082 6.094 5.090 10.972 11.186 10.89s10.973-5.090 10.892-11.188c-0.080-6.094-5.090-10.972-11.186-10.89zM13.076 4.64c1.122 0 1.454 0.65 1.454 1.396 0 0.93-0.745 1.79-2.016 1.79-1.063 0-1.568-0.535-1.538-1.418 0-0.745 0.624-1.768 2.102-1.768zM10.199 18.9c-0.767 0-1.328-0.466-0.792-2.512l0.88-3.629c0.152-0.582 0.178-0.814 0-0.814-0.229 0-1.226 0.402-1.814 0.798l-0.383-0.628c1.866-1.558 4.012-2.472 4.93-2.472 0.766 0 0.894 0.908 0.511 2.303l-1.008 3.816c-0.178 0.674-0.101 0.908 0.076 0.908 0.23 0 0.984-0.278 1.726-0.862l0.433 0.582c-1.813 1.814-3.792 2.512-4.56 2.512z"></path>
</svg>
